X:1
T:Title
%%score ( 1 2 3 ) { 4 | 5 }
L:1/8
Q:1/4=108
M:4/4
K:A
V:1 treble nm="Grand Piano, Staff 1"
V:2 treble 
V:3 treble 
V:4 bass nm="Choir Pad, Bonar, 88.7 D"
V:5 bass 
V:1
 C2 z E [FA]2 [EA]2 | [DG]2 FG [DF]2 [DE]2 | E3 E [^DA]2 [EA]2 | [^DA]2 GA [EB]2 [=DE]2 | %4
w: By~John~Baptiste~Calkin,~1867 * * *||||
 [Cc]3 [^Dc] [EB]2 E2 | [EA]2 [^DF]2 E4 | E3 [EF] [EG]2 [EB]2 | [EA]2 [EG]2 [DF]2 [CE]2 | %8
w: ||||
 [EG]3 [FA] [GB]2 [Ac]2 | [Ee]2 [Ed]2 [Ec]2 [EB]2 | [^Ec]3 [GB] A2 [A,=E]2 | [A,F]4 [B,A]4 | %12
w: ||||
 [CA]8 |] %13
w: |
V:2
 E4 z4 | z2 D2 z4 | C2 D2 z4 | z2 ^D2 z4 | x8 | x8 | x8 | x8 | x8 | x8 | x8 | x8 | x8 |] %13
V:3
 z2 D2 z4 | x8 | x8 | x8 | x8 | x8 | x8 | x8 | x8 | x8 | x8 | x8 | x8 |] %13
V:4
 A,2 B,2 D2 C2 | B,2 A,B, A,2 G,2 | A,2 B,2 =C2 ^C2 | B,2 B,2 A,2 G,2 | A,3 A, B,2 G,2 | %5
 C2 B,A, G,4 | G,3 A, B,2 D2 | C2 A,2 A,2 A,2 | E3 ^D =D2 C2 | A,2[K:bass] B,2 A,2 G,2 | %10
 G,3 D CA, =G,2 | F,4 F,2 ^E,2 | E,8 |] %13
V:5
 A,,2 A,,2 A,2 A,2 | E,2 E,2 E,2 E,2 | A,,2 A,,2 A,,2 A,,2 | F,2 ^E,2 =E,2 E,2 | %4
 A,,3 A,, G,,2 C,2 | A,,2 B,,2 E,4 | E,3 E, E,2 E,2 | A,,2 A,,2 A,,2 A,,2 | E,3 E, E,2 E,2 | %9
 F,2 G,2 z2 E,D, | C,3 ^E, F,2 C,2 | D,4 D,4 | A,,8 |] %13

